assets/img/braze_icons/cloud-lightning.svg

<svg fill="none" height="24" viewBox="0 0 24 24" width="24" xmlns="http://www.w3.org/2000/svg"><path clip-rule="evenodd" d="m19.4914 8.18681c2.5922.66306 4.5086 3.01429 4.5086 5.81319 0 3.3137-2.6863 6-6 6h-11.5c-3.58985 0-6.5-2.9101-6.5-6.5 0-3.0623 2.11764-5.62996 4.96841-6.31852 1.35557-2.49093 3.99615-4.18148 7.03159-4.18148 3.4283 0 6.3528 2.15641 7.4914 5.18681zm-5.8545.40842c.3287-.44379.2355-1.07005-.2083-1.39879-.4438-.32873-1.0701-.23546-1.3988.20833l-3.33336 4.50003c-.22481.3035-.25945.7078-.08953 1.0451.16991.3373.51539.5501.89309.5501h3.0148l-2.1517 2.9048c-.3287.4438-.2355 1.07.2083 1.3988.4438.3287 1.0701.2354 1.3988-.2084l3.3334-4.5c.2248-.3035.2594-.7078.0895-1.0451s-.5154-.5501-.8931-.5501h-3.0148z" fill="#801ed7" fill-rule="evenodd"/></svg>

<svg width="24" height="24" viewBox="0 0 24 24" fill="none" xmlns="http://www.w3.org/2000/svg">
<path fill-rule="evenodd" clip-rule="evenodd" d="M19.4914 8.18681C22.0836 8.84987 24 11.2011 24 14C24 17.3137 21.3137 20 18 20H6.5C2.91015 20 0 17.0899 0 13.5C0 10.4377 2.11764 7.87004 4.96841 7.18148C6.32398 4.69055 8.96456 3 12 3C15.4283 3 18.3528 5.15641 19.4914 8.18681ZM13.6369 8.59523C13.9656 8.15144 13.8724 7.52518 13.4286 7.19644C12.9848 6.86771 12.3585 6.96098 12.0298 7.40477L8.69644 11.9048C8.47163 12.2083 8.43699 12.6126 8.60691 12.9499C8.77682 13.2872 9.1223 13.5 9.5 13.5H12.5148L10.3631 16.4048C10.0344 16.8486 10.1276 17.4748 10.5714 17.8036C11.0152 18.1323 11.6415 18.039 11.9702 17.5952L15.3036 13.0952C15.5284 12.7917 15.563 12.3874 15.3931 12.0501C15.2232 11.7128 14.8777 11.5 14.5 11.5H11.4852L13.6369 8.59523Z" fill="#801ED7"/>
</svg>
